src/assets/svg/instagram.svg

<svg xmlns="http://www.w3.org/2000/svg" width="24" height="24" viewBox="0 0 24 24"><path d="M12 2.163c3.204 0 3.584.012 4.85.07 3.252.148 4.771 1.691 4.919 4.919.058 1.265.069 1.645.069 4.849 0 3.205-.012 3.584-.069 4.849-.149 3.225-1.664 4.771-4.919 4.919-1.266.058-1.644.07-4.85.07-3.204 0-3.584-.012-4.849-.07-3.26-.149-4.771-1.699-4.919-4.92-.058-1.265-.07-1.644-.07-4.849 0-3.204.013-3.583.07-4.849.149-3.227 1.664-4.771 4.919-4.919 1.266-.057 1.645-.069 4.849-.069zm0-2.163c-3.259 0-3.667.014-4.947.072-4.358.2-6.78 2.618-6.98 6.98-.059 1.281-.073 1.689-.073 4.948 0 3.259.014 3.668.072 4.948.2 4.358 2.618 6.78 6.98 6.98 1.281.058 1.689.072 4.948.072 3.259 0 3.668-.014 4.948-.072 4.354-.2 6.782-2.618 6.979-6.98.059-1.28.073-1.689.073-4.948 0-3.259-.014-3.667-.072-4.947-.196-4.354-2.617-6.78-6.979-6.98-1.281-.059-1.69-.073-4.949-.073zm0 5.838c-3.403 0-6.162 2.759-6.162 6.162s2.759 6.163 6.162 6.163 6.162-2.759 6.162-6.163c0-3.403-2.759-6.162-6.162-6.162zm0 10.162c-2.209 0-4-1.79-4-4 0-2.209 1.791-4 4-4s4 1.791 4 4c0 2.21-1.791 4-4 4zm6.406-11.845c-.796 0-1.441.645-1.441 1.44s.645 1.44 1.441 1.44c.795 0 1.439-.645 1.439-1.44s-.644-1.44-1.439-1.44z"/></svg>

<?xml version="1.0" encoding="utf-8"?>
<!-- Generator: Adobe Illustrator 26.2.1, SVG Export Plug-In . SVG Version: 6.00 Build 0)  -->
<svg version="1.1" id="Layer_1" xmlns="http://www.w3.org/2000/svg" xmlns:xlink="http://www.w3.org/1999/xlink" x="0px" y="0px"
	 viewBox="0 0 24 24" style="enable-background:new 0 0 24 24;" xml:space="preserve">
<style type="text/css">
	.st0{fill:#1F2760;}
</style>
<path class="st0" d="M12,2.2c3.2,0,3.6,0,4.9,0.1c3.3,0.1,4.8,1.7,4.9,4.9c0.1,1.3,0.1,1.6,0.1,4.8c0,3.2,0,3.6-0.1,4.8
	c-0.1,3.2-1.7,4.8-4.9,4.9c-1.3,0.1-1.6,0.1-4.9,0.1c-3.2,0-3.6,0-4.8-0.1c-3.3-0.1-4.8-1.7-4.9-4.9c-0.1-1.3-0.1-1.6-0.1-4.8
	c0-3.2,0-3.6,0.1-4.8c0.1-3.2,1.7-4.8,4.9-4.9C8.4,2.2,8.8,2.2,12,2.2z M12,0C8.7,0,8.3,0,7.1,0.1c-4.4,0.2-6.8,2.6-7,7
	C0,8.3,0,8.7,0,12s0,3.7,0.1,4.9c0.2,4.4,2.6,6.8,7,7C8.3,24,8.7,24,12,24s3.7,0,4.9-0.1c4.4-0.2,6.8-2.6,7-7C24,15.7,24,15.3,24,12
	s0-3.7-0.1-4.9c-0.2-4.4-2.6-6.8-7-7C15.7,0,15.3,0,12,0z M12,5.8c-3.4,0-6.2,2.8-6.2,6.2s2.8,6.2,6.2,6.2s6.2-2.8,6.2-6.2
	C18.2,8.6,15.4,5.8,12,5.8z M12,16c-2.2,0-4-1.8-4-4c0-2.2,1.8-4,4-4s4,1.8,4,4C16,14.2,14.2,16,12,16z M18.4,4.2
	c-0.8,0-1.4,0.6-1.4,1.4S17.6,7,18.4,7c0.8,0,1.4-0.6,1.4-1.4S19.2,4.2,18.4,4.2z"/>
</svg>
